!!!COM:Ernest Chausson
!!!CNT:Francais
!!!TXO:Francais
!!!OTL:Les Papillons
!!!OPR:
!!!OPS: Op. 2
!!!ONM: No. 3
!!!LYR:Theophile Gautier
!!!ENC:Jacob Pegg
!!!YOR:20 Songs for Voice and Piano, International Music Company, New York City, January, 1952
!!!ODT: 1880/
!!NB:Vocal melody and text only encoded.
**kern	**silbe
*clef G2	*
*k[b-]	*
*M2/4	*
=3	=3
8r	.
{8a	{Les
8a	pa-
8a	-pil-
=4	=4
4a	-lons
12a	cou-
12a	-leur
12a	de
=5	=5
2cc	nei-
=6	=6
4g}	-ge}
4r	.
=7	=7
{8f	{vo-
8f	-lent
8f	par
8f	es-
=8	=8
4b-	-saims
8b-	sur
8b-	la
=9	=9
[2a	mer;
=10	=10
8a]}	|}
8r	.
4r	.
=11	=11
{8a	{Beaux
8a	pa-
8b-	-pil-
8cc	-lons
=12	=12
2cc	blancs,
=13	=13
4r	.
8b-	quand
8cc	pour-
=14	=14
4cc	-rai~
4e}	~je}
=15	=15
{4dd	{pren-
8dd	-dre
8dd	le
=16	=16
8cc	bleu
8g	che-
[4g	-min
=17	=17
4.g]	|
8f	de
=18	=18
[4f	l'air.
8f]}	|}
8r	.
=20	=20
4r	.
{8a	{Sa-
8a	-vez~
=21	=21
4a	~vous
4r	.
=22	=22
8r	.
8a	o^
12a	bel-
12a	-le
12a	des
=23	=23
2cc	bel-
=24	=24
4g}	-les}
4r	.
=25	=25
8r	.
{8g	{Ma
8g	ba-
8g	-ya-
=26	=26
4.g	-de\re
8g	aux
=27	=27
4g	yeux
4a	de
=28	=28
4b-}	jais,}
4r	.
=29	=29
8r	.
{8b-	{S'ils
8b-	me
8b-	vou-
=30	=30
4.dd	-laient
8g	pre^-
=31	=31
4g	-ter
4b-	leurs
=32	=32
2b-	ai-
=33	=33
4a}	-les}
4r	.
=34	=34
{[2a	{di-
=35	=35
8a]	|
8Bn	-tes
8Bn	sa-
8Bn	-vez~
=36	=36
2a	~vous
=37	=37
4B-	ou\
4a	j'i-
=38	=38
2a}	-rais?}
=39	=39
4r	.
8r	.
{8f	{Sans
=40	=40
4.f	prendre
8f	un
=41	=41
8f	seul
8f	bai-
8.b-	-ser
16a	aux
=42	=42
2a	ro-
=43	=43
8a}	-ses,}
8r	.
{8a	{a\
8a	tra-
=44	=44
4.cc	-vers
8cc	val-
=45	=45
4b-	-lons
8b-	et
8b-	fo-
=46	=46
[2ee-	-re^ts
=47	=47
4ee-]}	|}
8r	.
{8ee-	{J'i-
=48	=48
4dd	-rais
8dd	a\
8cc	vos
=49	=49
8cc	le\-
4b-	-vres
8a	mi-
=50	=50
2cc	-clo-
=51	=51
4b-}	-ses}
4r	.
=53	=53
8r	.
{8a	{Fleur
8f	de
8c	mon
=54	=54
4c	a^-
8c	-me
8r	.
=55	=55
8r	.
8c	et
8c	j'y
8c	mour-
=56	=56
2c}	-rais}
*-	*-
